packages/tokens/icons/coveoIndex/size32Px.svg

<svg viewBox="0 0 32 32" fill="none" xmlns="http://www.w3.org/2000/svg" width="1em" height="1em"><rect x="8.20711" y="16" width="11" height="11" rx="1.5" transform="rotate(-45 8.20711 16)" stroke="currentColor"/><path d="M8.5 6.5C8.5 7.60457 7.60457 8.5 6.5 8.5C5.39543 8.5 4.5 7.60457 4.5 6.5C4.5 5.39543 5.39543 4.5 6.5 4.5C7.60457 4.5 8.5 5.39543 8.5 6.5ZM8.5 25.5C8.5 26.6046 7.60457 27.5 6.5 27.5C5.39543 27.5 4.5 26.6046 4.5 25.5C4.5 24.3954 5.39543 23.5 6.5 23.5C7.60457 23.5 8.5 24.3954 8.5 25.5ZM27.5 6.5C27.5 7.60457 26.6046 8.5 25.5 8.5C24.3954 8.5 23.5 7.60457 23.5 6.5C23.5 5.39543 24.3954 4.5 25.5 4.5C26.6046 4.5 27.5 5.39543 27.5 6.5ZM17.5 4C17.5 4.82843 16.8284 5.5 16 5.5C15.1716 5.5 14.5 4.82843 14.5 4C14.5 3.17157 15.1716 2.5 16 2.5C16.8284 2.5 17.5 3.17157 17.5 4ZM5.5 16C5.5 16.8284 4.82843 17.5 4 17.5C3.17157 17.5 2.5 16.8284 2.5 16C2.5 15.1716 3.17157 14.5 4 14.5C4.82843 14.5 5.5 15.1716 5.5 16ZM29.5 16C29.5 16.8284 28.8284 17.5 28 17.5C27.1716 17.5 26.5 16.8284 26.5 16C26.5 15.1716 27.1716 14.5 28 14.5C28.8284 14.5 29.5 15.1716 29.5 16ZM17.5 28C17.5 28.8284 16.8284 29.5 16 29.5C15.1716 29.5 14.5 28.8284 14.5 28C14.5 27.1716 15.1716 26.5 16 26.5C16.8284 26.5 17.5 27.1716 17.5 28ZM27.5 25.5C27.5 26.6046 26.6046 27.5 25.5 27.5C24.3954 27.5 23.5 26.6046 23.5 25.5C23.5 24.3954 24.3954 23.5 25.5 23.5C26.6046 23.5 27.5 24.3954 27.5 25.5Z" stroke="currentColor"/><path d="M20.3536 19.6465C20.1583 19.4513 19.8417 19.4513 19.6465 19.6465C19.4512 19.8418 19.4512 20.1584 19.6465 20.3536L20.3536 19.6465ZM11.6465 12.3536C11.8417 12.5489 12.1583 12.5489 12.3536 12.3536C12.5488 12.1584 12.5488 11.8418 12.3536 11.6465L11.6465 12.3536ZM16.5 26.5V23H15.5V26.5H16.5ZM16.5 8.5V5.5H15.5V8.5H16.5ZM8.5 15.5001H5.5V16.5001H8.5V15.5001ZM26.5 15.5001H23.5V16.5001H26.5V15.5001ZM19.6465 20.3536L23.6465 24.3536L24.3536 23.6465L20.3536 19.6465L19.6465 20.3536ZM7.64646 8.35363L11.6465 12.3536L12.3536 11.6465L8.35356 7.64653L7.64646 8.35363ZM11.6464 19.6465L7.64644 23.6465L8.35354 24.3536L12.3535 20.3536L11.6464 19.6465ZM23.6464 7.64653L19.6464 11.6465L20.3535 12.3536L24.3535 8.35363L23.6464 7.64653Z" fill="currentColor"/></svg>

<svg xmlns="http://www.w3.org/2000/svg" fill="none" viewBox="0 0 32 32" width="1em" height="1em"><rect width="11" height="11" x="8.207" y="16" stroke="currentColor" rx="1.5" transform="rotate(-45 8.207 16)"/><path stroke="currentColor" d="M8.5 6.5a2 2 0 1 1-4 0 2 2 0 0 1 4 0Zm0 19a2 2 0 1 1-4 0 2 2 0 0 1 4 0Zm19-19a2 2 0 1 1-4 0 2 2 0 0 1 4 0ZM17.5 4a1.5 1.5 0 1 1-3 0 1.5 1.5 0 0 1 3 0Zm-12 12a1.5 1.5 0 1 1-3 0 1.5 1.5 0 0 1 3 0Zm24 0a1.5 1.5 0 1 1-3 0 1.5 1.5 0 0 1 3 0Zm-12 12a1.5 1.5 0 1 1-3 0 1.5 1.5 0 0 1 3 0Zm10-2.5a2 2 0 1 1-4 0 2 2 0 0 1 4 0Z"/><path fill="currentColor" d="M20.354 19.646a.5.5 0 0 0-.707.708l.707-.707Zm-8.707-7.292a.5.5 0 1 0 .707-.707l-.707.707ZM16.5 26.5V23h-1v3.5h1Zm0-18v-3h-1v3h1Zm-8 7h-3v1h3v-1Zm18 0h-3v1h3v-1Zm-6.854 4.854 4 4 .708-.707-4-4-.707.707Zm-12-12 4 4 .708-.707-4-4-.708.707Zm4 11.293-4 4 .708.707 4-4-.708-.707Zm12-12-4 4 .707.707 4-4-.707-.707Z"/></svg>
